X:1
T:Pull for the Shore
T:Phillip Paul Bliss, 1875
T:Pull for the Shore
T:Public Domain
T:Public Domain
T:Public Domain
C:Phillip Paul Bliss, 1875
Z:Public Domain
%%score 1 2 3
L:1/8
M:4/4
K:G
V:1 treble 
V:2 treble 
V:3 bass 
V:1
 D2 B>c BABd | G2 B>B A4 | A2 A>^G ABcd | e2 d>c B4 | D2 B>c BABd | G2 AB c4 | cBA^G ABce | %7
w: 1.~Light in the dark- ness, sail- or,|day is at hand!|See o’er the foam- ing bil- lows|fair ha- ven’s land,|Drear was the voy- age, sail- or,|now al- most o’er,|Safe with- in the life boat, sail- or,|
w: 2.~Trust in the life boat, sail- or,|all else will fail,|Strong- er the surg- es dash and|fierc- er the gale,|Heed not the storm- y winds, though|loud- ly they roar;|Watch the “bright and morn- ing Star,” and|
w: 3.~Bright gleams the morn- ing, sail- or,|up- lift the eye;|Clouds~and dark- ness dis- ap- pear- ing,|glor- y is nigh!|Safe in the life boat, sail- or,|sing ev- er- more;|“Glor- y, glor- y, hal- le- lu- jah!”|
 d2 F>F G4 |"^Refrain" [Gd]2 [GB]>[Gc] [Gd]2 [GB]>[Gc] | [Gd]2 [Ge]>[Gd] [FA]4 | %10
w: pull for the shore.|||
w: pull for the shore!|Pull for the shore, sail- or,|pull for the shore!|
w: pull for the shore.|||
 [Fc]2 A>[GB] [Fc][Fc][Fc][Fc] | [Fe]2 [Fd]>[Fc] [GB]4 | D2 [GB]>[Gc] [GB][GA][GB][Gd] | %13
w: |||
w: Heed not the roll- ing waves, but|bend to the oar;|Safe in the life boat, sail- or,|
w: |||
 GG[FA][=FB] [Ec]4 | [Ec][EB][EA][E^G] [EA][EB][Ec][Ee] | [Fd]2 [DF]>[DF] [DG]4 |] %16
w: |||
w: cling to self no more!|Leave the poor old strand- ed wreck, and|pull for the shore.|
w: |||
V:2
 z2 [B,DG]2 [B,DG]2 [B,DG]2 | z2 [B,DG]2 [A,DF]4 | z2 [A,DF]2 [A,DF]2 [A,DF]2 | z2 [CDF]2 [B,DG]4 | %4
 z2 [B,DG]2 [B,DG]2 [B,DG]2 | z2 [B,D=F]2 [G,CE]4 | z2 [A,CE]2 [A,CE]2 [A,CE]2 | %7
 z2 [A,CDF]2 [B,DG]4 | x8 | x8 | x8 | x8 | x8 | x8 | x8 | x8 |] %16
V:3
 [G,,G,]6 z2 | [G,,G,]2 z2 [D,,D,]4 | [D,,D,]6 z2 | [D,,D,]2 z2 [G,,G,]4 | [G,,G,]6 z2 | %5
 [G,,G,]2 z2 [C,,C,]4 | [C,,C,]6 z2 | [D,,D,]2 z2 [G,,G,]4 | [G,B,]2 G,>[G,A,] [G,B,]2 G,>[G,A,] | %9
 [G,B,]2 [G,C]>[G,B,] [D,D]4 | [D,A,]2 [D,F,]>[D,G,] [D,A,][D,A,][D,A,][D,A,] | %11
 [D,A,]2 [D,D]>[D,D] [G,D]4 | [G,B,]2 [G,D]>[G,E] [G,D][G,D][G,D][G,B,] | %13
 [G,B,][G,B,][G,D][G,D] [C,C]4 | [C,C][C,C][C,C][C,C] [C,C][C,C][C,C][C,C] | %15
 [D,A,]2 [D,C]>[D,C] [G,,B,]4 |] %16

